X:1
T:Title
%%score { ( 1 3 ) | 2 }
L:1/8
M:3/4
K:Ab
V:1 treble nm="Grand Piano"
V:3 treble 
V:2 bass 
V:1
 z2 z2[Q:1/4=85] [Ec]>[DB] | [DB]2 [CA]2 [Fd]>[Ec] | [Ec]2 [DB]2 [DB][DF] | A3 G FE | %4
[M:2/4] [CE]4 |[M:1/4] [Ec]>[DB] |[M:3/4] [DB]2 [CA]2 [Fd]>[Ec] | [Ec]2 [DB]2 BB | e3 B [=DA][DF] | %9
[M:2/4] E4 |[M:1/4] c>d |[M:3/4] e4 z2 |[M:2/4] c2 B2 |[M:1/4] B>c |[M:3/4] d4 z2 | [Ec]4 c>c | %16
 c4 z2 | [GB]2 [FA]2 [FA][=EA] | A3 c B>[CA] |[M:2/4] [CA]4 |] %20
V:2
 z2 z2 [A,,A,]>[A,,A,] | [A,,A,]2 [A,,A,]2 [F,=A,]>[F,A,] | [B,,B,]2 [B,,B,]2 [B,,B,][B,,B,] | %3
 [E,B,D]3 [E,B,D] [E,A,D][E,G,D] |[M:2/4] [A,,A,]4 |[M:1/4] [E,G,]>[E,G,] | %6
[M:3/4] [A,,A,]2 [A,,A,]2 [F,=A,]>[F,A,] | [B,,B,]2 [B,,B,]2 [B,=D][A,B,D] | %8
 [G,B,E]3 [E,G,E] [B,,F,][B,,A,] |[M:2/4] [E,G,]4 |[M:1/4] z2 | %11
[M:3/4][K:treble] [A,CA]>[A,C] [A,C][A,DA] [A,CA][K:bass][A,CE] |[M:2/4] [E,A,E]2 [E,G,E]2 | %13
[M:1/4] z2 |[M:3/4] [E,B,E]>[E,B,] [E,B,][D,G,] [C,A,][B,,G,] | [A,,A,]4 z2 | %16
 [C,G,]>[C,G,] [C,G,][C,C] [C,C][C,C] | [F,C]2 [F,C]2 [D,D][D,D] | %18
 [E,CE]3 [E,A,E] [E,G,D]>[A,,A,] |[M:2/4] [A,,A,]4 |] %20
V:3
 x6 | x6 | x6 | x6 |[M:2/4] x4 |[M:1/4] x2 |[M:3/4] x6 | x6 | x6 |[M:2/4] x4 |[M:1/4] x2 | %11
[M:3/4] z z/ A/ Af eA |[M:2/4] x4 |[M:1/4] x2 |[M:3/4] z z/ E/ E[EB] [Ee][Ed] | x6 | %16
 =E>E E[EG] [FA][GB] | x6 | x6 |[M:2/4] x4 |] %20

